packages/foundations/icons/Education/Books.svg

<svg width="24" height="24" viewBox="0 0 24 24" fill="none" xmlns="http://www.w3.org/2000/svg">
<g clip-path="url(#clip0_1_9675)">
<path fill-rule="evenodd" clip-rule="evenodd" d="M13 0C14.0544 0 14.9182 0.815878 14.9945 1.85074L15 2V3.176L18.258 2.60202C19.0258 2.46662 19.7602 2.94121 19.9638 3.67768L19.9957 3.81876L23.1213 21.5453C23.2567 22.3131 22.7821 23.0475 22.0457 23.2511L21.9046 23.283L17.9654 23.9776C17.1975 24.113 16.4632 23.6384 16.2595 22.9019L16.2277 22.7608L15 15.8V22C15 23.0544 14.1841 23.9182 13.1493 23.9945L13 24H8C7.71255 24 7.43927 23.9394 7.19224 23.8302C7.02679 23.9172 6.84293 23.9737 6.64808 23.9928L6.5 24H2.5C1.7203 24 1.07955 23.4051 1.00687 22.6445L1 22.5V4.5C1 3.7203 1.59489 3.07955 2.35554 3.00687L2.5 3H6V2C6 0.945638 6.81588 0.0818349 7.85074 0.00548574L8 0L13 0ZM13 2H8V22H13V2ZM5.999 5H2.999V22H5.999V5ZM18.1121 4.65779L15.1577 5.17874L18.1097 21.9205L21.0641 21.3995L18.1121 4.65779ZM12 20C12.2761 20 12.5 20.2239 12.5 20.5C12.5 20.7455 12.3231 20.9496 12.0899 20.9919L12 21H9C8.72386 21 8.5 20.7761 8.5 20.5C8.5 20.2545 8.67688 20.0504 8.91012 20.0081L9 20H12ZM4.5 14C4.74546 14 4.94961 14.1769 4.99194 14.4101L5 14.5V20.5C5 20.7761 4.77614 21 4.5 21C4.25454 21 4.05039 20.8231 4.00806 20.5899L4 20.5V14.5C4 14.2239 4.22386 14 4.5 14ZM18.7201 13.8749L18.743 13.9621L19.743 19.871C19.7891 20.1433 19.6057 20.4013 19.3334 20.4474C19.0914 20.4884 18.8606 20.348 18.7799 20.1251L18.757 20.0379L17.757 14.129C17.7109 13.8567 17.8943 13.5987 18.1666 13.5526C18.4086 13.5116 18.6394 13.652 18.7201 13.8749ZM12 18.5C12.2761 18.5 12.5 18.7239 12.5 19C12.5 19.2455 12.3231 19.4496 12.0899 19.4919L12 19.5H9C8.72386 19.5 8.5 19.2761 8.5 19C8.5 18.7545 8.67688 18.5504 8.91012 18.5081L9 18.5H12Z" fill="#3D474D"/>
</g>
<defs>
<clipPath id="clip0_1_9675">
<rect width="24" height="24" fill="white"/>
</clipPath>
</defs>
</svg>

<svg xmlns="http://www.w3.org/2000/svg" fill="none" viewBox="0 0 24 24" width="100%" height="100%">
  <g clip-path="url(#a)">
    <path fill="#3D474D" fill-rule="evenodd" d="M13 0a2 2 0 0 1 1.995 1.85L15 2v1.176l3.258-.574a1.5 1.5 0 0 1 1.706 1.076l.032.14 3.125 17.727a1.5 1.5 0 0 1-1.075 1.706l-.141.032-3.94.695a1.5 1.5 0 0 1-1.706-1.076l-.031-.141L15 15.8V22a2 2 0 0 1-1.85 1.994L13 24H8c-.287 0-.56-.06-.808-.17-.165.087-.35.144-.544.163L6.5 24h-4a1.5 1.5 0 0 1-1.493-1.355L1 22.5v-18a1.5 1.5 0 0 1 1.356-1.493L2.5 3H6V2A2 2 0 0 1 7.85.005L8 0h5Zm0 2H8v20h5V2ZM5.999 5h-3v17h3V5Zm12.113-.342-2.954.52L18.11 21.92l2.954-.52-2.952-16.742ZM12 20a.5.5 0 0 1 .09.992L12 21H9a.5.5 0 0 1-.09-.992L9 20h3Zm-7.5-6a.5.5 0 0 1 .492.41L5 14.5v6a.5.5 0 0 1-.992.09L4 20.5v-6a.5.5 0 0 1 .5-.5Zm14.22-.125.023.087 1 5.909a.5.5 0 0 1-.963.254l-.023-.087-1-5.909a.5.5 0 0 1 .963-.254ZM12 18.5a.5.5 0 0 1 .09.992L12 19.5H9a.5.5 0 0 1-.09-.992L9 18.5h3Z" clip-rule="evenodd"/>
  </g>
  <defs>
    <clipPath id="a">
      <path fill="#fff" d="M0 0h24v24H0z"/>
    </clipPath>
  </defs>
</svg>
